X: 30453
T: Old Wheel Of Fortune, The
R: reel
M: 4/4
K: Dmajor
dB|:AFEF DDEG|FDAD BdcB|AFEF DDEG|1 FAEF DcdB:|2 FAEF Dfed||
K: Amaj
|:cAeA fAec|Aaec dcBc|1 Acec Acea|fdBc dfed:|2 d/d/d fd cdec|Bcde fd c/c/d||

